build/images/vector/kf.svg

<svg width="280" height="38" viewBox="0 0 280 38" xmlns="http://www.w3.org/2000/svg"><title>Imported Layers</title><g fill="#000" fill-rule="evenodd"><path d="M54.71 30.875V28.63c.465-.11.958-.193 1.37-.247l-5.532-6.626V28.3c.575.054 1.232.164 1.807.33v2.245h-7.75v-2.22c.713-.163 1.56-.3 2.383-.354V14.966c-.822-.054-1.67-.19-2.382-.355v-2.218h7.75v2.245c-.576.164-1.233.274-1.808.328V21.1l5.476-6.216c-.44-.028-1.013-.11-1.424-.247v-2.245h7.502v2.245c-.547.11-1.204.22-1.697.274l-5.86 6.354 6.243 7.09c.52.056 1.177.167 1.725.275v2.245H54.71M74.178 30.875v-8.708c0-1.396-.383-2.245-1.67-2.245-1.78 0-3.176 2-3.176 4.38v4a11.49 11.49 0 0 1 2 .327v2.245h-7.887v-2.22c.712-.163 1.56-.3 2.382-.354v-8.35a27.62 27.62 0 0 0-2.382-.275v-2.19c1.752-.22 3.86-.3 5.695-.247 0 .63-.055 1.726-.19 2.465h.026c.82-1.588 2.41-2.71 4.627-2.71 3.067 0 4.053 1.943 4.053 4.325V28.3c.794.054 1.588.192 2.218.356v2.22h-5.696M80.614 30.875v-2.22c.712-.163 1.56-.3 2.382-.354v-8.35a27.62 27.62 0 0 0-2.382-.275v-2.19c1.752-.22 3.86-.3 5.886-.247V28.3c.767.054 1.56.192 2.22.356v2.22h-8.106zm4.134-15.636c-1.177 0-2.163-.93-2.163-2.11 0-1.176.986-2.135 2.163-2.135 1.205 0 2.19.93 2.19 2.136 0 1.15-.985 2.11-2.19 2.11zM95.564 37.747c-3.614 0-5.832-1.396-5.832-4.053 0-1.423.986-2.737 2.108-3.34-.82-.383-1.34-1.15-1.34-2.082 0-1.067.683-2.026 1.614-2.435-1.26-.686-2.026-1.945-2.026-3.725 0-2.74 2.026-5.148 5.996-5.148.877 0 1.48.11 2.218.302h4.628v2.738h-1.862c.438.41.684 1.013.684 1.726 0 2.902-1.943 4.9-5.832 4.9-.383 0-.684-.027-1.068-.108-.438.19-.657.546-.657.875 0 .63.52.794 2.11.85l2.107.08c2.93.11 4.628 1.37 4.628 4 0 2.928-2.958 5.42-7.476 5.42zm1.862-6.71l-2.354-.08h-.63c-.794.575-1.26 1.314-1.26 2.08 0 1.26 1.15 2.028 2.902 2.028 2.273 0 3.478-.988 3.478-2.274 0-.985-.63-1.696-2.136-1.752zm-1.478-11.526c-1.588 0-2.52 1.013-2.52 2.383 0 1.452.877 2.354 2.52 2.354 1.533 0 2.464-.875 2.464-2.326 0-1.45-.85-2.41-2.464-2.41zM114.35 30.875v-8.708c0-1.396-.385-2.245-1.67-2.245-1.78 0-3.178 2-3.178 4.408v3.97c.685.054 1.397.164 2 .33v2.245h-7.694v-2.22c.656-.163 1.45-.3 2.217-.354V13.57c-.657-.11-1.56-.22-2.3-.275v-2.19c1.697-.22 3.778-.302 5.777-.247v5.888c0 .82-.054 1.944-.22 2.765h.028c.795-1.505 2.355-2.518 4.49-2.518 3.068 0 4.053 1.944 4.053 4.326V28.3c.713.054 1.534.192 2.19.356v2.22h-5.694M126.59 31.147c-3.013 0-3.944-1.093-3.944-4.27v-6.9h-2.356v-2.71h2.356v-4.19l3.477-.932v5.12h3.313v2.712h-3.313v5.97c0 1.75.41 2.244 1.615 2.244.576 0 1.096-.053 1.56-.19l.248 2.765c-.876.22-2 .382-2.957.382M146.358 17.13c-.11-.63-.218-1.233-.273-1.89h-3.697v5.092h3.094c.054-.52.165-1.04.3-1.506h2.274v5.723h-2.273a8.176 8.176 0 0 1-.3-1.507h-3.095V28.3c.822.054 1.67.192 2.38.356v2.22h-8.322v-2.22c.71-.164 1.56-.302 2.382-.355V14.966c-.82-.054-1.67-.19-2.382-.355v-2.218h12.57v4.737h-2.658M156.873 31.147c-3.86 0-6.353-2-6.353-6.79 0-4.3 2.822-7.365 6.955-7.365 3.862 0 6.353 2.11 6.353 6.79 0 4.3-2.848 7.365-6.955 7.365zm.356-11.198c-1.59 0-3.095 1.204-3.095 4.08 0 2.71.986 4.133 3.04 4.133 1.724 0 3.04-1.396 3.04-4.08 0-2.71-.987-4.134-2.986-4.134zM175.602 30.902c0-.684.055-1.7.165-2.465h-.055c-.794 1.588-2.383 2.71-4.6 2.71-3.094 0-4.08-1.944-4.08-4.326v-6.87c-.658-.11-1.478-.22-2.19-.275v-2.218c1.588-.19 3.67-.273 5.694-.22v8.737c0 1.396.384 2.245 1.67 2.245 1.78 0 3.178-2 3.178-4.382v-3.916c-.576-.082-1.316-.192-2-.247V17.43a43.972 43.972 0 0 1 5.476-.192V28.19c.658.11 1.507.22 2.218.274v2.22c-1.587.19-3.695.273-5.476.218M192.58 30.875v-8.708c0-1.396-.385-2.245-1.67-2.245-1.78 0-3.178 2-3.178 4.38v4a11.43 11.43 0 0 1 1.998.327v2.245h-7.884v-2.22a15.36 15.36 0 0 1 2.38-.354v-8.35c-.656-.11-1.586-.22-2.38-.275v-2.19c1.753-.22 3.86-.3 5.694-.247 0 .63-.054 1.726-.19 2.465h.027c.82-1.588 2.41-2.71 4.628-2.71 3.065 0 4.052 1.943 4.052 4.325V28.3c.794.054 1.587.192 2.217.356v2.22h-5.694M208.434 30.902c0-.684.054-1.56.164-2.3h-.055c-.712 1.506-2.218 2.574-4.3 2.574-3.312 0-4.955-2.49-4.955-6.38 0-4.6 2.683-7.777 7.2-7.777.577 0 1.123.027 1.727.11v-3.56c-.657-.11-1.59-.22-2.383-.275v-2.19c1.726-.22 3.86-.302 5.86-.247V28.19c.658.11 1.56.22 2.245.274v2.19c-1.587.22-3.696.303-5.503.248zm-.22-10.898a8.544 8.544 0 0 0-1.834-.22c-2 0-3.423 1.26-3.423 4.628 0 2.547.74 3.86 2.328 3.86 1.834 0 2.93-2.134 2.93-4.462v-3.806zM223.083 30.902c0-.794 0-1.616.11-2.328l-.028-.027c-.657 1.533-2.327 2.6-4.353 2.6-2.437 0-3.888-1.504-3.888-3.695 0-3.26 3.23-4.792 7.858-4.846v-.794c0-1.453-.575-2.274-2.41-2.274-.657 0-1.424.137-2 .328-.053.522-.135 1.18-.272 1.782h-2.19v-3.972a16.465 16.465 0 0 1 4.71-.712c4.462 0 5.694 1.753 5.694 4.738v6.49c.658.11 1.506.218 2.218.272v2.22c-1.588.19-3.696.273-5.45.218zm-.3-6.05c-3.122 0-4.518.683-4.518 2.08 0 .903.63 1.56 1.642 1.56 1.725 0 2.875-1.615 2.875-3.286v-.355zM235.05 31.147c-3.013 0-3.944-1.093-3.944-4.27v-6.9h-2.354v-2.71h2.354v-4.19l3.478-.932v5.12h3.313v2.712h-3.313v5.97c0 1.75.41 2.244 1.616 2.244.574 0 1.095-.053 1.56-.19l.247 2.765c-.877.22-2 .382-2.957.382M239.267 30.875v-2.22c.71-.163 1.56-.3 2.382-.354v-8.35c-.66-.11-1.59-.22-2.383-.275v-2.19c1.752-.22 3.86-.3 5.886-.247V28.3c.767.054 1.562.192 2.22.356v2.22h-8.106zM243.4 15.24c-1.176 0-2.162-.93-2.162-2.11 0-1.176.986-2.135 2.163-2.135 1.206 0 2.19.93 2.19 2.136 0 1.15-.984 2.11-2.19 2.11zM254.737 31.147c-3.86 0-6.352-2-6.352-6.79 0-4.3 2.82-7.365 6.954-7.365 3.86 0 6.353 2.11 6.353 6.79 0 4.3-2.848 7.365-6.956 7.365zm.357-11.198c-1.59 0-3.095 1.204-3.095 4.08 0 2.71.985 4.133 3.038 4.133 1.726 0 3.04-1.396 3.04-4.08 0-2.71-.985-4.134-2.984-4.134zM273.768 30.875v-8.708c0-1.396-.384-2.245-1.67-2.245-1.78 0-3.176 2-3.176 4.38v4c.657.052 1.395.162 1.998.327v2.245h-7.885v-2.22c.71-.163 1.56-.3 2.382-.354v-8.35c-.657-.11-1.59-.22-2.382-.275v-2.19c1.75-.22 3.86-.3 5.694-.247 0 .63-.054 1.726-.192 2.465h.027c.822-1.588 2.41-2.71 4.627-2.71 3.068 0 4.054 1.943 4.054 4.325V28.3c.793.054 1.587.192 2.218.356v2.22h-5.696M.33.963h9.354L.33 15.213 9.685 30.76H.33V.963"/><path d="M17.584.963H34.37V7.07H17.585v5.246H34.37v6.095H17.585v12.35L7.578 15.213 17.584.963"/></g></svg>

<?xml version="1.0" encoding="UTF-8" standalone="no"?>
<svg width="280px" height="38px" viewBox="0 0 280 38" version="1.1" xmlns="http://www.w3.org/2000/svg" xmlns:xlink="http://www.w3.org/1999/xlink" xmlns:sketch="http://www.bohemiancoding.com/sketch/ns">
    <!-- Generator: Sketch 3.2.2 (9983) - http://www.bohemiancoding.com/sketch -->
    <title>Imported Layers</title>
    <desc>Created with Sketch.</desc>
    <defs></defs>
    <g id="Page-1" stroke="none" stroke-width="1" fill="none" fill-rule="evenodd" sketch:type="MSPage">
        <g id="Imported-Layers" sketch:type="MSLayerGroup" fill="#000000">
            <path d="M54.709,30.875 L54.709,28.629 C55.175,28.521 55.668,28.437 56.079,28.383 L50.548,21.757 L50.548,28.301 C51.123,28.354 51.78,28.464 52.355,28.629 L52.355,30.875 L44.606,30.875 L44.606,28.656 C45.318,28.492 46.166,28.354 46.988,28.301 L46.988,14.965 C46.166,14.911 45.318,14.774 44.606,14.61 L44.606,12.392 L52.355,12.392 L52.355,14.637 C51.78,14.801 51.123,14.911 50.548,14.965 L50.548,21.1 L56.024,14.884 C55.585,14.856 55.011,14.774 54.6,14.637 L54.6,12.392 L62.102,12.392 L62.102,14.637 C61.555,14.747 60.898,14.856 60.405,14.911 L54.545,21.264 L60.788,28.354 C61.309,28.41 61.965,28.521 62.513,28.629 L62.513,30.875 L54.709,30.875" id="Fill-1" sketch:type="MSShapeGroup"></path>
            <path d="M74.178,30.875 L74.178,22.167 C74.178,20.771 73.795,19.922 72.508,19.922 C70.728,19.922 69.332,21.921 69.332,24.303 L69.332,28.301 C69.989,28.354 70.728,28.464 71.331,28.629 L71.331,30.875 L63.445,30.875 L63.445,28.656 C64.157,28.492 65.006,28.354 65.827,28.301 L65.827,19.949 C65.17,19.84 64.239,19.73 63.445,19.675 L63.445,17.484 C65.197,17.266 67.306,17.184 69.14,17.238 C69.14,17.868 69.085,18.964 68.949,19.703 L68.976,19.703 C69.797,18.115 71.386,16.992 73.603,16.992 C76.67,16.992 77.656,18.936 77.656,21.318 L77.656,28.301 C78.45,28.354 79.244,28.492 79.874,28.656 L79.874,30.875 L74.178,30.875" id="Fill-2" sketch:type="MSShapeGroup"></path>
            <path d="M80.614,30.875 L80.614,28.656 C81.326,28.492 82.174,28.354 82.996,28.301 L82.996,19.949 C82.339,19.84 81.408,19.73 80.614,19.675 L80.614,17.484 C82.366,17.266 84.475,17.184 86.5,17.238 L86.5,28.301 C87.267,28.354 88.061,28.492 88.719,28.656 L88.719,30.875 L80.614,30.875 L80.614,30.875 Z M84.748,15.239 C83.571,15.239 82.585,14.309 82.585,13.131 C82.585,11.954 83.571,10.995 84.748,10.995 C85.953,10.995 86.939,11.926 86.939,13.131 C86.939,14.281 85.953,15.239 84.748,15.239 L84.748,15.239 Z" id="Fill-3" sketch:type="MSShapeGroup"></path>
            <path d="M95.564,37.747 C91.95,37.747 89.732,36.351 89.732,33.694 C89.732,32.271 90.718,30.957 91.84,30.353 C91.02,29.971 90.499,29.203 90.499,28.272 C90.499,27.205 91.183,26.246 92.114,25.837 C90.855,25.151 90.088,23.892 90.088,22.112 C90.088,19.373 92.114,16.964 96.084,16.964 C96.961,16.964 97.563,17.074 98.302,17.266 L102.93,17.266 L102.93,20.004 L101.068,20.004 C101.506,20.414 101.752,21.017 101.752,21.73 C101.752,24.632 99.809,26.631 95.92,26.631 C95.537,26.631 95.236,26.603 94.852,26.522 C94.414,26.713 94.195,27.068 94.195,27.397 C94.195,28.027 94.715,28.191 96.304,28.246 L98.412,28.328 C101.342,28.437 103.04,29.696 103.04,32.326 C103.04,35.255 100.082,37.747 95.564,37.747 L95.564,37.747 Z M97.426,31.038 L95.072,30.957 L94.442,30.957 C93.648,31.532 93.182,32.271 93.182,33.037 C93.182,34.298 94.332,35.065 96.084,35.065 C98.357,35.065 99.562,34.077 99.562,32.791 C99.562,31.805 98.932,31.094 97.426,31.038 L97.426,31.038 Z M95.948,19.511 C94.36,19.511 93.428,20.523 93.428,21.893 C93.428,23.345 94.305,24.247 95.948,24.247 C97.481,24.247 98.412,23.372 98.412,21.921 C98.412,20.47 97.563,19.511 95.948,19.511 L95.948,19.511 Z" id="Fill-4" sketch:type="MSShapeGroup"></path>
            <path d="M114.349,30.875 L114.349,22.167 C114.349,20.771 113.965,19.922 112.679,19.922 C110.899,19.922 109.502,21.921 109.502,24.33 L109.502,28.301 C110.187,28.354 110.899,28.464 111.501,28.629 L111.501,30.875 L103.808,30.875 L103.808,28.656 C104.464,28.492 105.258,28.354 106.025,28.301 L106.025,13.569 C105.368,13.46 104.464,13.35 103.725,13.295 L103.725,11.105 C105.422,10.886 107.503,10.803 109.502,10.858 L109.502,16.746 C109.502,17.566 109.448,18.69 109.283,19.511 L109.31,19.511 C110.105,18.005 111.665,16.992 113.801,16.992 C116.868,16.992 117.853,18.936 117.853,21.318 L117.853,28.301 C118.566,28.354 119.387,28.492 120.044,28.656 L120.044,30.875 L114.349,30.875" id="Fill-5" sketch:type="MSShapeGroup"></path>
            <path d="M126.589,31.147 C123.577,31.147 122.646,30.054 122.646,26.877 L122.646,19.977 L120.29,19.977 L120.29,17.266 L122.646,17.266 L122.646,13.076 L126.123,12.145 L126.123,17.266 L129.436,17.266 L129.436,19.977 L126.123,19.977 L126.123,25.946 C126.123,27.697 126.534,28.191 127.738,28.191 C128.314,28.191 128.834,28.137 129.299,28 L129.546,30.765 C128.67,30.984 127.547,31.147 126.589,31.147" id="Fill-6" sketch:type="MSShapeGroup"></path>
            <path d="M146.358,17.129 C146.249,16.499 146.14,15.897 146.085,15.239 L142.388,15.239 L142.388,20.332 L145.482,20.332 C145.536,19.812 145.647,19.292 145.783,18.826 L148.056,18.826 L148.056,24.549 L145.783,24.549 C145.647,24.083 145.536,23.59 145.482,23.043 L142.388,23.043 L142.388,28.301 C143.21,28.354 144.059,28.492 144.769,28.656 L144.769,30.875 L136.446,30.875 L136.446,28.656 C137.157,28.492 138.007,28.354 138.828,28.301 L138.828,14.965 C138.007,14.911 137.157,14.774 136.446,14.61 L136.446,12.392 L149.015,12.392 L149.015,17.129 L146.358,17.129" id="Fill-7" sketch:type="MSShapeGroup"></path>
            <path d="M156.873,31.147 C153.013,31.147 150.52,29.148 150.52,24.357 C150.52,20.058 153.342,16.992 157.475,16.992 C161.337,16.992 163.828,19.101 163.828,23.783 C163.828,28.081 160.98,31.147 156.873,31.147 L156.873,31.147 Z M157.229,19.949 C155.641,19.949 154.135,21.154 154.135,24.029 C154.135,26.739 155.121,28.163 157.174,28.163 C158.899,28.163 160.214,26.767 160.214,24.083 C160.214,21.373 159.228,19.949 157.229,19.949 L157.229,19.949 Z" id="Fill-8" sketch:type="MSShapeGroup"></path>
            <path d="M175.602,30.902 C175.602,30.218 175.657,29.203 175.767,28.437 L175.712,28.437 C174.918,30.025 173.329,31.147 171.111,31.147 C168.018,31.147 167.031,29.203 167.031,26.821 L167.031,19.949 C166.374,19.84 165.554,19.73 164.841,19.675 L164.841,17.457 C166.43,17.266 168.511,17.184 170.536,17.238 L170.536,25.974 C170.536,27.37 170.92,28.219 172.207,28.219 C173.986,28.219 175.384,26.22 175.384,23.838 L175.384,19.922 C174.808,19.84 174.068,19.73 173.385,19.675 L173.385,17.43 C175,17.266 176.972,17.184 178.86,17.238 L178.86,28.191 C179.518,28.301 180.367,28.41 181.078,28.464 L181.078,30.683 C179.491,30.875 177.383,30.957 175.602,30.902" id="Fill-9" sketch:type="MSShapeGroup"></path>
            <path d="M192.58,30.875 L192.58,22.167 C192.58,20.771 192.195,19.922 190.909,19.922 C189.129,19.922 187.732,21.921 187.732,24.303 L187.732,28.301 C188.39,28.354 189.129,28.464 189.73,28.629 L189.73,30.875 L181.846,30.875 L181.846,28.656 C182.558,28.492 183.406,28.354 184.227,28.301 L184.227,19.949 C183.57,19.84 182.64,19.73 181.846,19.675 L181.846,17.484 C183.599,17.266 185.707,17.184 187.54,17.238 C187.54,17.868 187.486,18.964 187.349,19.703 L187.377,19.703 C188.197,18.115 189.786,16.992 192.005,16.992 C195.07,16.992 196.057,18.936 196.057,21.318 L196.057,28.301 C196.851,28.354 197.644,28.492 198.274,28.656 L198.274,30.875 L192.58,30.875" id="Fill-10" sketch:type="MSShapeGroup"></path>
            <path d="M208.434,30.902 C208.434,30.218 208.488,29.341 208.598,28.602 L208.543,28.602 C207.831,30.108 206.325,31.176 204.244,31.176 C200.931,31.176 199.288,28.685 199.288,24.796 C199.288,20.195 201.971,17.019 206.489,17.019 C207.065,17.019 207.611,17.047 208.215,17.129 L208.215,13.569 C207.558,13.46 206.626,13.35 205.832,13.295 L205.832,11.105 C207.558,10.886 209.692,10.803 211.691,10.858 L211.691,28.191 C212.35,28.301 213.253,28.41 213.937,28.464 L213.937,30.655 C212.35,30.875 210.241,30.957 208.434,30.902 L208.434,30.902 Z M208.215,20.004 C207.584,19.866 206.982,19.785 206.38,19.785 C204.381,19.785 202.957,21.045 202.957,24.412 C202.957,26.959 203.696,28.272 205.285,28.272 C207.119,28.272 208.215,26.138 208.215,23.81 L208.215,20.004 L208.215,20.004 Z" id="Fill-11" sketch:type="MSShapeGroup"></path>
            <path d="M223.083,30.902 C223.083,30.108 223.083,29.286 223.193,28.574 L223.165,28.547 C222.508,30.08 220.838,31.147 218.812,31.147 C216.375,31.147 214.924,29.643 214.924,27.452 C214.924,24.193 218.155,22.66 222.782,22.606 L222.782,21.812 C222.782,20.359 222.207,19.538 220.372,19.538 C219.715,19.538 218.948,19.675 218.373,19.866 C218.319,20.388 218.237,21.045 218.1,21.648 L215.909,21.648 L215.909,17.676 C217.333,17.238 219.004,16.964 220.619,16.964 C225.082,16.964 226.314,18.717 226.314,21.702 L226.314,28.191 C226.972,28.301 227.82,28.41 228.532,28.464 L228.532,30.683 C226.944,30.875 224.836,30.957 223.083,30.902 L223.083,30.902 Z M222.782,24.851 C219.661,24.851 218.265,25.535 218.265,26.931 C218.265,27.835 218.894,28.492 219.907,28.492 C221.632,28.492 222.782,26.877 222.782,25.206 L222.782,24.851 L222.782,24.851 Z" id="Fill-12" sketch:type="MSShapeGroup"></path>
            <path d="M235.05,31.147 C232.037,31.147 231.106,30.054 231.106,26.877 L231.106,19.977 L228.752,19.977 L228.752,17.266 L231.106,17.266 L231.106,13.076 L234.584,12.145 L234.584,17.266 L237.897,17.266 L237.897,19.977 L234.584,19.977 L234.584,25.946 C234.584,27.697 234.994,28.191 236.2,28.191 C236.774,28.191 237.295,28.137 237.76,28 L238.007,30.765 C237.13,30.984 236.008,31.147 235.05,31.147" id="Fill-13" sketch:type="MSShapeGroup"></path>
            <path d="M239.267,30.875 L239.267,28.656 C239.978,28.492 240.827,28.354 241.649,28.301 L241.649,19.949 C240.991,19.84 240.06,19.73 239.267,19.675 L239.267,17.484 C241.019,17.266 243.127,17.184 245.153,17.238 L245.153,28.301 C245.92,28.354 246.715,28.492 247.372,28.656 L247.372,30.875 L239.267,30.875 L239.267,30.875 Z M243.401,15.239 C242.224,15.239 241.238,14.309 241.238,13.131 C241.238,11.954 242.224,10.995 243.401,10.995 C244.606,10.995 245.591,11.926 245.591,13.131 C245.591,14.281 244.606,15.239 243.401,15.239 L243.401,15.239 Z" id="Fill-14" sketch:type="MSShapeGroup"></path>
            <path d="M254.737,31.147 C250.877,31.147 248.385,29.148 248.385,24.357 C248.385,20.058 251.205,16.992 255.339,16.992 C259.201,16.992 261.693,19.101 261.693,23.783 C261.693,28.081 258.845,31.147 254.737,31.147 L254.737,31.147 Z M255.094,19.949 C253.505,19.949 251.999,21.154 251.999,24.029 C251.999,26.739 252.985,28.163 255.038,28.163 C256.764,28.163 258.078,26.767 258.078,24.083 C258.078,21.373 257.093,19.949 255.094,19.949 L255.094,19.949 Z" id="Fill-15" sketch:type="MSShapeGroup"></path>
            <path d="M273.768,30.875 L273.768,22.167 C273.768,20.771 273.384,19.922 272.098,19.922 C270.317,19.922 268.922,21.921 268.922,24.303 L268.922,28.301 C269.579,28.354 270.317,28.464 270.92,28.629 L270.92,30.875 L263.035,30.875 L263.035,28.656 C263.746,28.492 264.595,28.354 265.417,28.301 L265.417,19.949 C264.76,19.84 263.828,19.73 263.035,19.675 L263.035,17.484 C264.786,17.266 266.894,17.184 268.729,17.238 C268.729,17.868 268.676,18.964 268.538,19.703 L268.565,19.703 C269.387,18.115 270.975,16.992 273.192,16.992 C276.26,16.992 277.246,18.936 277.246,21.318 L277.246,28.301 C278.039,28.354 278.833,28.492 279.464,28.656 L279.464,30.875 L273.768,30.875" id="Fill-16" sketch:type="MSShapeGroup"></path>
            <path d="M0.331,0.963 L9.684,0.963 L0.331,15.213 L9.684,30.76 L0.331,30.76 L0.331,0.963" id="Fill-17" sketch:type="MSShapeGroup"></path>
            <path d="M17.584,0.963 L34.371,0.963 L34.371,7.071 L17.584,7.071 L17.584,12.316 L34.371,12.316 L34.371,18.411 L17.584,18.411 L17.584,30.76 L7.578,15.213 L17.584,0.963" id="Fill-18" sketch:type="MSShapeGroup"></path>
        </g>
    </g>
</svg>
